dist/img/icons/instagram.svg

<svg width="40" height="41" viewBox="0 0 40 41" fill="none" xmlns="http://www.w3.org/2000/svg">
<g id="Instagram">
<g id="Instagram_2">
<path id="Vector" d="M14.6002 20.9942C14.6002 18.0113 17.0177 15.5926 20.0006 15.5926C22.9835 15.5926 25.4022 18.0113 25.4022 20.9942C25.4022 23.9771 22.9835 26.3959 20.0006 26.3959C17.0177 26.3959 14.6002 23.9771 14.6002 20.9942ZM11.6802 20.9942C11.6802 25.5896 15.4052 29.3146 20.0006 29.3146C24.5959 29.3146 28.321 25.5896 28.321 20.9942C28.321 16.3989 24.5959 12.6738 20.0006 12.6738C15.4052 12.6738 11.6802 16.3989 11.6802 20.9942ZM26.7059 12.3439C26.7058 12.7285 26.8197 13.1045 27.0332 13.4243C27.2467 13.7442 27.5503 13.9935 27.9055 14.1408C28.2608 14.2881 28.6517 14.3268 29.029 14.2519C29.4062 14.1771 29.7527 13.992 30.0248 13.7202C30.2968 13.4483 30.4821 13.102 30.5573 12.7248C30.6325 12.3476 30.5941 11.9567 30.4471 11.6013C30.3001 11.2459 30.051 10.9422 29.7313 10.7284C29.4116 10.5146 29.0357 10.4004 28.6512 10.4002H28.6504C28.1349 10.4005 27.6406 10.6053 27.276 10.9698C26.9114 11.3342 26.7064 11.8284 26.7059 12.3439ZM13.4543 34.1837C11.8745 34.1117 11.0158 33.8486 10.4452 33.6262C9.68867 33.3317 9.14889 32.981 8.58137 32.4142C8.01386 31.8475 7.66256 31.3082 7.36934 30.5517C7.14689 29.9813 6.88375 29.1224 6.81193 27.5426C6.73337 25.8346 6.71769 25.3215 6.71769 20.9944C6.71769 16.6672 6.73467 16.1555 6.81193 14.4461C6.88387 12.8663 7.14897 12.0091 7.36934 11.437C7.66386 10.6805 8.01463 10.1407 8.58137 9.57321C9.14812 9.00569 9.68737 8.6544 10.4452 8.36118C11.0156 8.13873 11.8745 7.87558 13.4543 7.80377C15.1623 7.72521 15.6754 7.70953 20.0006 7.70953C24.3258 7.70953 24.8394 7.72651 26.5488 7.80377C28.1286 7.87571 28.9859 8.14081 29.5579 8.36118C30.3144 8.6544 30.8542 9.00647 31.4217 9.57321C31.9892 10.14 32.3392 10.6805 32.6338 11.437C32.8562 12.0074 33.1194 12.8663 33.1912 14.4461C33.2697 16.1555 33.2854 16.6672 33.2854 20.9944C33.2854 25.3215 33.2697 25.8332 33.1912 27.5426C33.1192 29.1224 32.8548 29.9811 32.6338 30.5517C32.3392 31.3082 31.9885 31.848 31.4217 32.4142C30.855 32.9804 30.3144 33.3317 29.5579 33.6262C28.9875 33.8487 28.1286 34.1118 26.5488 34.1837C24.8408 34.2622 24.3277 34.2779 20.0006 34.2779C15.6734 34.2779 15.1618 34.2622 13.4543 34.1837ZM13.3201 4.88866C11.5951 4.96721 10.4164 5.24073 9.38702 5.64129C8.32095 6.05493 7.41847 6.60988 6.51663 7.51029C5.6148 8.41069 5.06128 9.3146 4.64763 10.3807C4.24708 11.4107 3.97356 12.5888 3.895 14.3138C3.81515 16.0415 3.79688 16.5938 3.79688 20.9942C3.79688 25.3946 3.81515 25.947 3.895 27.6747C3.97356 29.3998 4.24708 30.5777 4.64763 31.6078C5.06128 32.6732 5.61493 33.5782 6.51663 34.4782C7.41834 35.3782 8.32095 35.9324 9.38702 36.3472C10.4184 36.7477 11.5951 37.0212 13.3201 37.0998C15.0487 37.1784 15.6002 37.1979 20.0006 37.1979C24.401 37.1979 24.9533 37.1797 26.681 37.0998C28.4062 37.0212 29.5841 36.7477 30.6141 36.3472C31.6796 35.9324 32.5827 35.3786 33.4845 34.4782C34.3864 33.5778 34.9387 32.6732 35.3535 31.6078C35.7541 30.5777 36.0289 29.3997 36.1062 27.6747C36.1847 25.9457 36.203 25.3946 36.203 20.9942C36.203 16.5938 36.1847 16.0415 36.1062 14.3138C36.0276 12.5887 35.7541 11.4101 35.3535 10.3807C34.9387 9.31525 34.3849 8.41212 33.4845 7.51029C32.5841 6.60845 31.6796 6.05493 30.6154 5.64129C29.5841 5.24073 28.406 4.96592 26.6823 4.88866C24.9546 4.8101 24.4023 4.79053 20.0019 4.79053C15.6015 4.79053 15.0487 4.80881 13.3201 4.88866Z" fill="#F8F8FF"/>
</g>
</g>
</svg>

<svg width="40" height="41" fill="none" xmlns="http://www.w3.org/2000/svg"><path d="M14.6 20.994a5.401 5.401 0 115.4 5.402 5.401 5.401 0 01-5.4-5.402zm-2.92 0a8.32 8.32 0 108.32-8.32 8.32 8.32 0 00-8.32 8.32zm15.026-8.65A1.945 1.945 0 1028.65 10.4a1.945 1.945 0 00-1.945 1.944zm-13.252 21.84c-1.58-.072-2.438-.335-3.009-.558a5.035 5.035 0 01-1.864-1.212 5 5 0 01-1.212-1.862c-.222-.57-.485-1.43-.557-3.01-.079-1.707-.094-2.22-.094-6.548 0-4.327.017-4.838.094-6.548.072-1.58.337-2.437.557-3.009a5.036 5.036 0 011.212-1.864 4.994 4.994 0 011.864-1.212c.57-.222 1.43-.485 3.01-.557 1.707-.079 2.22-.094 6.546-.094 4.325 0 4.838.017 6.548.094 1.58.072 2.437.337 3.009.557a5.02 5.02 0 011.864 1.212 5.022 5.022 0 011.212 1.864c.222.57.485 1.43.557 3.01.079 1.709.094 2.22.094 6.547 0 4.328-.015 4.84-.094 6.549-.072 1.58-.336 2.438-.557 3.009a5.021 5.021 0 01-1.212 1.862 5.036 5.036 0 01-1.864 1.212c-.57.223-1.43.486-3.01.558-1.707.078-2.22.094-6.547.094-4.328 0-4.84-.016-6.547-.094zM13.32 4.889c-1.725.078-2.904.352-3.933.752a7.948 7.948 0 00-2.87 1.87 7.917 7.917 0 00-1.87 2.87c-.4 1.03-.673 2.208-.752 3.933-.08 1.727-.098 2.28-.098 6.68s.018 4.953.098 6.68c.079 1.726.352 2.904.753 3.934a7.921 7.921 0 001.869 2.87 7.967 7.967 0 002.87 1.87c1.031.4 2.208.673 3.933.752 1.729.078 2.28.098 6.68.098 4.401 0 4.953-.018 6.681-.098 1.725-.079 2.903-.352 3.933-.753a7.968 7.968 0 002.87-1.869 7.937 7.937 0 001.87-2.87c.4-1.03.675-2.208.752-3.933.079-1.73.097-2.28.097-6.68 0-4.401-.018-4.954-.097-6.681-.078-1.725-.352-2.904-.753-3.933a7.968 7.968 0 00-1.869-2.87 7.928 7.928 0 00-2.869-1.87c-1.03-.4-2.209-.675-3.933-.752-1.727-.079-2.28-.098-6.68-.098s-4.953.018-6.682.098z" fill="#F8F8FF"/></svg>
